brandFactory_export/3.Masa/Sombrilla playa _3Masa.svg

<?xml version="1.0" encoding="UTF-8"?>
<svg width="24px" height="24px" viewBox="0 0 24 24" version="1.1" xmlns="http://www.w3.org/2000/svg" xmlns:xlink="http://www.w3.org/1999/xlink">
    <title>3.Masa/Sombrilla playa _3Masa</title>
    <g id="Symbols" stroke="none" stroke-width="1" fill="none" fill-rule="evenodd">
        <g id="3.Masa/Sombrilla-playa-_3Masa" fill="#5CB615" fill-rule="nonzero">
            <path d="M6.73445378,14.4168067 C4.52941176,8.98151261 6.30756303,4.94453782 7.43361345,3.16302521 L12.2336134,11.1697479 L6.73445378,14.4168067 L6.73445378,14.4168067 Z M4.9394958,4.32268908 C3.91764706,6.81344538 3.27563025,10.6184874 5.26218487,15.2840336 L2.73109244,16.7798319 C2.62352941,16.8436975 2.56302521,16.9008403 2.30420168,16.8302521 C2.15966387,16.7831933 2.05210084,16.6890756 2.00168067,16.5714286 C1.01680672,14.2420168 0.761344538,12.0302521 1.23865546,10 C1.71932773,7.9092437 2.9697479,6.01008403 4.9394958,4.32268908 Z M19.8941176,6.64201681 L13.692437,10.3058824 L8.82184874,2.18487395 C10.7983193,1.91932773 15.3764706,1.9697479 19.8941176,6.64201681 Z M23.5210084,3.8789916 C23.6117647,3.97647059 23.6554622,4.11092437 23.6420168,4.22857143 C23.6218487,4.37310924 23.5378151,4.48739496 23.4067227,4.56806723 L21.3697479,5.77142857 C17.9378151,2.11092437 14.4386555,0.860504202 11.7764706,0.544537815 C13.8537815,-0.0739495798 15.8403361,-0.168067227 17.7058824,0.278991597 C19.8201681,0.786554622 21.7764706,1.99663866 23.5210084,3.8789916 Z M7.30252101,2.99159664 L6.85546218,2.24537815 C6.62352941,1.85546218 6.76470588,1.35462185 7.17478992,1.12941176 C7.58487395,0.907563025 8.1092437,1.04201681 8.34453782,1.43529412 L8.76470588,2.13781513 L7.30252101,2.99159664 Z M13.6991597,10.3361345 L20.9294118,22.4 C21.1647059,22.7932773 21.0201681,23.2907563 20.610084,23.5159664 C20.4756303,23.5865546 20.3310924,23.6235294 20.1865546,23.6235294 C19.887395,23.6235294 19.6016807,23.4756303 19.4436975,23.2134454 L12.2369748,11.1932773 L13.6991597,10.3361345 Z" id="Sombrilla-playa-_3Masa"></path>
        </g>
    </g>
</svg>

<svg width="24" height="24" viewBox="0 0 24 24" xmlns="http://www.w3.org/2000/svg"><path d="M6.734 14.417c-2.205-5.435-.426-9.472.7-11.254l4.8 8.007-5.5 3.247zM4.94 4.323c-1.021 2.49-1.663 6.295.323 10.961l-2.53 1.496c-.108.064-.169.12-.428.05a.48.48 0 01-.302-.259c-.985-2.329-1.24-4.54-.763-6.571.48-2.09 1.73-3.99 3.7-5.677zm14.955 2.319l-6.202 3.664-4.87-8.121c1.976-.266 6.554-.215 11.072 4.457zm3.627-2.763c.09.097.134.232.121.35a.47.47 0 01-.235.34L21.37 5.77c-3.432-3.66-6.931-4.91-9.594-5.226 2.078-.619 4.064-.713 5.93-.266 2.114.508 4.07 1.718 5.815 3.6zM7.303 2.992l-.448-.747a.802.802 0 01.32-1.116.882.882 0 011.17.306l.42.703-1.462.854zm6.396 7.344L20.93 22.4c.236.393.091.89-.319 1.116a.91.91 0 01-.423.108.862.862 0 01-.743-.41l-7.207-12.02 1.462-.858z" fill="#5CB615" fill-rule="nonzero"/></svg>
